app/clientComponent/section6_contact/images/contactImage1.svg

<svg width="383" height="603" viewBox="0 0 383 603" fill="none" xmlns="http://www.w3.org/2000/svg">
<path d="M52.24 116.72C48.52 116.72 44.2 116.54 39.28 116.18C37.48 116.06 35.2 115.94 32.44 115.82C29.68 115.7 26.56 115.64 23.08 115.64L10.3 115.82C8.02 115.94 4.84 116 0.76 116C0.52 116 0.4 115.64 0.4 114.92C0.4 114.2 0.52 113.84 0.76 113.84C4.84 113.84 7.78 113.54 9.58 112.94C11.5 112.34 12.82 111.2 13.54 109.52C14.26 107.72 14.62 105.02 14.62 101.42V18.08C14.62 14.48 14.26 11.84 13.54 10.16C12.94 8.47999 11.68 7.33999 9.76 6.73999C7.84 6.01999 4.9 5.65999 0.94 5.65999C0.7 5.65999 0.58 5.29999 0.58 4.58C0.58 3.86 0.7 3.5 0.94 3.5L10.48 3.68C15.76 3.91999 19.96 4.03999 23.08 4.03999C27.88 4.03999 32.74 3.86 37.66 3.5C43.66 3.26 47.68 3.13999 49.72 3.13999C61.96 3.13999 72.82 5.54 82.3 10.34C91.78 15.14 99.1 21.68 104.26 29.96C109.54 38.24 112.18 47.54 112.18 57.86C112.18 69.5 109.48 79.82 104.08 88.82C98.68 97.7 91.42 104.6 82.3 109.52C73.18 114.32 63.16 116.72 52.24 116.72ZM50.44 113.12C58.72 113.12 66.04 111.14 72.4 107.18C78.88 103.22 83.92 97.4 87.52 89.72C91.12 81.92 92.92 72.62 92.92 61.82C92.92 51.5 91.18 42.2 87.7 33.92C84.34 25.52 79.54 18.92 73.3 14.12C67.06 9.19999 59.8 6.73999 51.52 6.73999C46.48 6.73999 42.58 7.03999 39.82 7.63999C37.06 8.24 35.02 9.38 33.7 11.06C32.5 12.62 31.9 15.08 31.9 18.44V99.44C31.9 104.36 33.16 107.9 35.68 110.06C38.2 112.1 43.12 113.12 50.44 113.12ZM162.632 118.34C155.432 118.34 149.072 116.66 143.552 113.3C138.032 109.82 133.772 105.2 130.772 99.44C127.772 93.56 126.272 87.2 126.272 80.36C126.272 72.56 128.192 65.96 132.032 60.56C135.992 55.04 140.972 50.96 146.972 48.32C153.092 45.56 159.332 44.18 165.692 44.18C173.012 44.18 179.372 45.92 184.772 49.4C190.292 52.88 194.492 57.5 197.372 63.26C200.252 68.9 201.692 74.96 201.692 81.44C201.692 88.64 199.892 95.06 196.292 100.7C192.812 106.34 188.072 110.72 182.072 113.84C176.072 116.84 169.592 118.34 162.632 118.34ZM168.032 114.74C173.312 114.74 177.332 112.4 180.092 107.72C182.972 103.04 184.412 96.2 184.412 87.2C184.412 79.16 183.272 72.14 180.992 66.14C178.832 60.14 175.832 55.58 171.992 52.46C168.272 49.34 164.192 47.78 159.752 47.78C154.352 47.78 150.272 50 147.512 54.44C144.752 58.88 143.372 65.42 143.372 74.06C143.372 81.86 144.392 88.88 146.432 95.12C148.592 101.24 151.532 106.04 155.252 109.52C159.092 113 163.352 114.74 168.032 114.74ZM298.591 113.84C298.951 113.84 299.131 114.2 299.131 114.92C299.131 115.64 298.951 116 298.591 116C295.591 116 293.251 115.94 291.571 115.82L281.131 115.64L270.871 115.82C269.071 115.94 266.671 116 263.671 116C263.311 116 263.131 115.64 263.131 114.92C263.131 114.2 263.311 113.84 263.671 113.84C267.751 113.84 270.451 113 271.771 111.32C273.091 109.64 273.751 106.34 273.751 101.42V74.42C273.751 67.7 272.491 62.78 269.971 59.66C267.571 56.42 263.731 54.8 258.451 54.8C255.331 54.8 252.151 55.52 248.911 56.96C245.671 58.4 242.731 60.32 240.091 62.72V101.42C240.091 106.34 240.751 109.64 242.071 111.32C243.391 113 246.091 113.84 250.171 113.84C250.531 113.84 250.711 114.2 250.711 114.92C250.711 115.64 250.531 116 250.171 116C247.171 116 244.831 115.94 243.151 115.82L232.711 115.64L222.271 115.82C220.591 115.94 218.251 116 215.251 116C214.891 116 214.711 115.64 214.711 114.92C214.711 114.2 214.891 113.84 215.251 113.84C219.331 113.84 222.031 113 223.351 111.32C224.671 109.64 225.331 106.34 225.331 101.42V67.04C225.331 63.2 224.851 60.38 223.891 58.58C223.051 56.78 221.611 55.88 219.571 55.88C217.771 55.88 214.771 56.78 210.571 58.58H210.391C209.911 58.58 209.551 58.28 209.311 57.68C209.071 57.08 209.131 56.72 209.491 56.6L233.071 45.08C233.791 44.84 234.211 44.72 234.331 44.72C235.531 44.72 236.731 46.1 237.931 48.86C239.251 51.5 239.971 54.98 240.091 59.3C248.491 49.34 257.611 44.36 267.451 44.36C274.051 44.36 279.211 46.4 282.931 50.48C286.651 54.44 288.511 59.84 288.511 66.68V101.42C288.511 106.34 289.171 109.64 290.491 111.32C291.811 113 294.511 113.84 298.591 113.84ZM302.756 6.73999C302.636 5.41999 304.376 4.1 307.976 2.78C311.576 1.45999 314.756 0.799992 317.516 0.799992C319.436 0.799992 320.336 1.21999 320.216 2.06L309.596 50.12C309.356 50.36 308.816 50.54 307.976 50.66C307.256 50.78 306.896 50.66 306.896 50.3L302.756 6.73999ZM380.959 104.48C381.319 104.48 381.619 104.72 381.859 105.2C382.219 105.68 382.219 106.04 381.859 106.28C377.419 110.48 373.219 113.54 369.259 115.46C365.299 117.26 361.099 118.16 356.659 118.16C351.499 118.16 347.119 116.96 343.519 114.56C340.039 112.04 338.299 107.9 338.299 102.14V61.46C338.299 57.5 337.639 54.86 336.319 53.54C335.119 52.22 332.719 51.56 329.119 51.56C328.999 51.56 328.819 51.44 328.579 51.2C328.459 50.84 328.399 50.48 328.399 50.12C328.399 49.76 328.459 49.46 328.579 49.22C328.819 48.86 328.999 48.68 329.119 48.68C340.399 48.2 347.479 43.34 350.359 34.1C350.599 33.62 351.079 33.38 351.799 33.38C352.639 33.38 353.059 33.62 353.059 34.1V48.32C358.699 48.2 366.679 47.6 376.999 46.52C377.239 46.52 377.479 47 377.719 47.96C378.079 48.8 378.259 49.76 378.259 50.84C378.259 51.92 378.019 53 377.539 54.08C377.179 55.16 376.759 55.64 376.279 55.52C369.559 53.96 361.819 53 353.059 52.64V96.2C353.059 100.88 354.199 104.36 356.479 106.64C358.879 108.8 362.179 109.88 366.379 109.88C371.419 109.88 376.159 108.14 380.599 104.66L380.959 104.48ZM58.18 270.82C68.02 271.9 75.88 275.2 81.76 280.72C87.64 286.24 90.58 293.08 90.58 301.24C90.58 307.48 88.84 313.18 85.36 318.34C82 323.38 77.26 327.4 71.14 330.4C65.14 333.28 58.42 334.72 50.98 334.72C47.5 334.72 43.48 334.54 38.92 334.18C37.36 334.06 35.38 333.94 32.98 333.82C30.58 333.7 27.88 333.64 24.88 333.64L11.92 333.82C9.64 333.94 6.52 334 2.56 334C2.2 334 2.02 333.64 2.02 332.92C2.02 332.2 2.2 331.84 2.56 331.84C6.4 331.84 9.28 331.54 11.2 330.94C13.12 330.22 14.44 329.02 15.16 327.34C16 325.66 16.42 323.02 16.42 319.42V236.08C16.42 232.6 16 230.02 15.16 228.34C14.44 226.54 13.12 225.34 11.2 224.74C9.4 224.02 6.58 223.66 2.74 223.66C2.5 223.66 2.38 223.3 2.38 222.58C2.38 221.86 2.5 221.5 2.74 221.5L12.1 221.68C17.38 221.92 21.64 222.04 24.88 222.04C28.24 222.04 31.78 221.86 35.5 221.5C36.82 221.38 38.38 221.26 40.18 221.14C42.1 221.02 44.26 220.96 46.66 220.96C57.34 220.96 65.5 223 71.14 227.08C76.78 231.16 79.6 236.92 79.6 244.36C79.6 250.12 77.74 255.34 74.02 260.02C70.3 264.58 65.02 268.18 58.18 270.82ZM43.6 224.56C39.76 224.56 37.12 225.34 35.68 226.9C34.36 228.46 33.7 231.64 33.7 236.44V270.64L41.26 270.82C48.34 270.82 53.68 268.54 57.28 263.98C60.88 259.3 62.68 253.3 62.68 245.98C62.68 239.14 61.06 233.86 57.82 230.14C54.58 226.42 49.84 224.56 43.6 224.56ZM48.1 330.58C64.3 330.58 72.4 322.24 72.4 305.56C72.4 296.44 70 289.12 65.2 283.6C60.52 278.08 53.62 275.32 44.5 275.32C40.18 275.32 36.58 275.44 33.7 275.68V319.42C33.7 322.18 34.06 324.34 34.78 325.9C35.5 327.46 36.88 328.66 38.92 329.5C40.96 330.22 44.02 330.58 48.1 330.58ZM168.161 322.66C168.401 322.66 168.641 322.9 168.881 323.38C169.241 323.86 169.301 324.22 169.061 324.46C164.621 328.54 160.181 331.54 155.741 333.46C151.301 335.26 146.501 336.16 141.341 336.16C134.021 336.16 127.661 334.54 122.261 331.3C116.981 328.06 112.901 323.8 110.021 318.52C107.261 313.24 105.881 307.54 105.881 301.42C105.881 294.34 107.621 287.86 111.101 281.98C114.581 276.1 119.321 271.48 125.321 268.12C131.441 264.64 138.221 262.9 145.661 262.9C152.861 262.9 158.441 264.64 162.401 268.12C166.361 271.6 168.341 276.76 168.341 283.6C168.341 287.08 167.621 288.82 166.181 288.82L122.261 289C122.141 290.08 122.081 291.7 122.081 293.86C122.081 304.42 124.481 312.82 129.281 319.06C134.201 325.18 141.161 328.24 150.161 328.24C153.521 328.24 156.341 327.88 158.621 327.16C160.901 326.32 163.961 324.88 167.801 322.84L168.161 322.66ZM139.181 266.5C134.741 266.5 131.081 268.24 128.201 271.72C125.441 275.08 123.581 279.76 122.621 285.76L151.421 285.22C151.181 272.74 147.101 266.5 139.181 266.5ZM24.52 458.58C24.52 463.02 25.6 466.98 27.76 470.46C30.04 473.82 32.8 476.76 36.04 479.28C39.4 481.8 43.9 484.8 49.54 488.28C55.66 492.12 60.46 495.42 63.94 498.18C67.54 500.94 70.54 504.36 72.94 508.44C75.46 512.4 76.72 517.08 76.72 522.48C76.72 528.6 75.1 534.06 71.86 538.86C68.74 543.66 64.24 547.44 58.36 550.2C52.6 552.84 46 554.16 38.56 554.16C33.52 554.16 28.3 553.5 22.9 552.18C17.62 550.86 13.6 549.24 10.84 547.32C9.76 546.6 9.16 545.46 9.04 543.9L7.96 516.54V516.36C7.96 515.88 8.26 515.64 8.86 515.64C9.46 515.52 9.82 515.7 9.94 516.18C13.9 526.14 18.4 534.3 23.44 540.66C28.6 547.02 35.14 550.2 43.06 550.2C48.22 550.2 52.54 548.82 56.02 546.06C59.5 543.18 61.24 538.44 61.24 531.84C61.24 526.56 60.04 521.94 57.64 517.98C55.36 514.02 52.48 510.72 49 508.08C45.64 505.44 41.02 502.2 35.14 498.36C29.38 494.64 24.88 491.52 21.64 489C18.4 486.36 15.64 483.18 13.36 479.46C11.08 475.62 9.94 471.18 9.94 466.14C9.94 459.9 11.68 454.62 15.16 450.3C18.64 445.98 23.14 442.8 28.66 440.76C34.3 438.6 40.18 437.52 46.3 437.52C50.38 437.52 54.46 437.94 58.54 438.78C62.62 439.5 66.04 440.46 68.8 441.66C70.6 442.38 71.5 443.52 71.5 445.08L72.04 469.56C72.04 469.92 71.68 470.16 70.96 470.28C70.36 470.4 70 470.28 69.88 469.92C67.48 462.6 64.24 456 60.16 450.12C56.2 444.12 50.2 441.12 42.16 441.12C36.76 441.12 32.44 442.68 29.2 445.8C26.08 448.92 24.52 453.18 24.52 458.58ZM173.71 549.84C174.19 549.84 174.43 550.2 174.43 550.92C174.43 551.64 174.19 552 173.71 552C170.71 552 168.31 551.94 166.51 551.82L156.25 551.64L145.99 551.82C144.19 551.94 141.79 552 138.79 552C138.43 552 138.25 551.64 138.25 550.92C138.25 550.2 138.43 549.84 138.79 549.84C142.75 549.84 145.45 549 146.89 547.32C148.33 545.52 149.05 542.22 149.05 537.42V510.6C149.05 497.4 143.89 490.8 133.57 490.8C130.33 490.8 127.03 491.58 123.67 493.14C120.43 494.58 117.55 496.56 115.03 499.08V537.42C115.03 542.34 115.69 545.64 117.01 547.32C118.45 549 121.21 549.84 125.29 549.84C125.77 549.84 126.01 550.2 126.01 550.92C126.01 551.64 125.77 552 125.29 552C122.29 552 119.89 551.94 118.09 551.82L107.83 551.64L97.5705 551.82C95.7705 551.94 93.3705 552 90.3705 552C90.0105 552 89.8305 551.64 89.8305 550.92C89.8305 550.2 90.0105 549.84 90.3705 549.84C94.3305 549.84 97.0305 549 98.4705 547.32C99.9105 545.52 100.63 542.22 100.63 537.42V445.44C100.63 441.24 100.21 438.24 99.3705 436.44C98.5305 434.52 97.1505 433.56 95.2305 433.56C93.4305 433.56 90.9705 434.28 87.8505 435.72H87.6705C87.3105 435.72 86.9505 435.42 86.5905 434.82C86.3505 434.1 86.4105 433.68 86.7705 433.56L111.79 421.68L112.69 421.5C113.17 421.5 113.65 421.74 114.13 422.22C114.73 422.7 115.03 423.12 115.03 423.48V495.48C123.67 485.52 132.85 480.54 142.57 480.54C149.17 480.54 154.27 482.52 157.87 486.48C161.59 490.44 163.45 495.84 163.45 502.68V537.42C163.45 542.34 164.11 545.64 165.43 547.32C166.87 549 169.63 549.84 173.71 549.84ZM256.125 482.52C256.365 482.52 256.485 482.88 256.485 483.6C256.485 484.32 256.365 484.68 256.125 484.68C252.525 484.68 249.405 486.12 246.765 489C244.245 491.88 241.905 496.26 239.745 502.14L219.045 557.04C214.725 568.56 210.585 577.62 206.625 584.22C202.665 590.82 198.645 595.5 194.565 598.26C190.485 601.14 185.985 602.58 181.065 602.58C177.705 602.58 175.125 601.86 173.325 600.42C171.405 599.1 170.445 597.06 170.445 594.3C170.445 591.9 171.225 590.04 172.785 588.72C174.225 587.52 176.025 586.92 178.185 586.92C179.625 586.92 180.825 587.1 181.785 587.46C182.865 587.94 183.945 588.54 185.025 589.26C186.225 589.98 187.245 590.52 188.085 590.88C189.045 591.24 190.185 591.42 191.505 591.42C194.265 591.42 196.785 590.28 199.065 588C201.465 585.84 203.925 582.18 206.445 577.02C209.085 571.86 212.205 564.54 215.805 555.06L187.365 497.46C184.725 492.3 182.625 488.88 181.065 487.2C179.625 485.52 177.825 484.68 175.665 484.68C175.305 484.68 175.125 484.32 175.125 483.6C175.125 482.88 175.305 482.52 175.665 482.52C178.785 482.52 181.185 482.58 182.865 482.7L189.885 482.88L202.125 482.7C203.925 482.58 206.385 482.52 209.505 482.52C209.865 482.52 210.045 482.88 210.045 483.6C210.045 484.32 209.865 484.68 209.505 484.68C206.265 484.68 203.865 484.98 202.305 485.58C200.865 486.06 200.145 487.02 200.145 488.46C200.145 489.54 200.445 490.62 201.045 491.7L223.005 537.06L235.065 502.14C236.145 499.02 236.685 496.38 236.685 494.22C236.685 487.86 232.665 484.68 224.625 484.68C224.385 484.68 224.265 484.32 224.265 483.6C224.265 482.88 224.385 482.52 224.625 482.52C227.865 482.52 230.325 482.58 232.005 482.7L242.805 482.88L249.825 482.7C251.145 482.58 253.245 482.52 256.125 482.52Z" fill="#4971FF"/>
</svg>

<svg xmlns="http://www.w3.org/2000/svg" width="383" height="603" fill="none" xmlns:v="https://vecta.io/nano"><path d="M52.24 116.72c-3.72 0-8.04-.18-12.96-.54l-6.84-.36a217.61 217.61 0 0 0-9.36-.18l-12.78.18c-2.28.12-5.46.18-9.54.18-.24 0-.36-.36-.36-1.08s.12-1.08.36-1.08c4.08 0 7.02-.3 8.82-.9 1.92-.6 3.24-1.74 3.96-3.42.72-1.8 1.08-4.5 1.08-8.1V18.08c0-3.6-.36-6.24-1.08-7.92-.6-1.68-1.86-2.82-3.78-3.42C7.84 6.02 4.9 5.66.94 5.66.7 5.66.58 5.3.58 4.58S.7 3.5.94 3.5l9.54.18c5.28.24 9.48.36 12.6.36 4.8 0 9.66-.18 14.58-.54l12.06-.36c12.24 0 23.1 2.4 32.58 7.2s16.8 11.34 21.96 19.62c5.28 8.28 7.92 17.58 7.92 27.9 0 11.64-2.7 21.96-8.1 30.96-5.4 8.88-12.66 15.78-21.78 20.7-9.12 4.8-19.14 7.2-30.06 7.2zm-1.8-3.6c8.28 0 15.6-1.98 21.96-5.94 6.48-3.96 11.52-9.78 15.12-17.46 3.6-7.8 5.4-17.1 5.4-27.9 0-10.32-1.74-19.62-5.22-27.9-3.36-8.4-8.16-15-14.4-19.8-6.24-4.92-13.5-7.38-21.78-7.38-5.04 0-8.94.3-11.7.9s-4.8 1.74-6.12 3.42c-1.2 1.56-1.8 4.02-1.8 7.38v81c0 4.92 1.26 8.46 3.78 10.62 2.52 2.04 7.44 3.06 14.76 3.06zm112.192 5.22c-7.2 0-13.56-1.68-19.08-5.04-5.52-3.48-9.78-8.1-12.78-13.86-3-5.88-4.5-12.24-4.5-19.08 0-7.8 1.92-14.4 5.76-19.8 3.96-5.52 8.94-9.6 14.94-12.24 6.12-2.76 12.36-4.14 18.72-4.14 7.32 0 13.68 1.74 19.08 5.22 5.52 3.48 9.72 8.1 12.6 13.86 2.88 5.64 4.32 11.7 4.32 18.18 0 7.2-1.8 13.62-5.4 19.26-3.48 5.64-8.22 10.02-14.22 13.14-6 3-12.48 4.5-19.44 4.5zm5.4-3.6c5.28 0 9.3-2.34 12.06-7.02 2.88-4.68 4.32-11.52 4.32-20.52 0-8.04-1.14-15.06-3.42-21.06-2.16-6-5.16-10.56-9-13.68-3.72-3.12-7.8-4.68-12.24-4.68-5.4 0-9.48 2.22-12.24 6.66s-4.14 10.98-4.14 19.62c0 7.8 1.02 14.82 3.06 21.06 2.16 6.12 5.1 10.92 8.82 14.4 3.84 3.48 8.1 5.22 12.78 5.22zm130.559-.9c.36 0 .54.36.54 1.08s-.18 1.08-.54 1.08c-3 0-5.34-.06-7.02-.18l-10.44-.18-10.26.18c-1.8.12-4.2.18-7.2.18-.36 0-.54-.36-.54-1.08s.18-1.08.54-1.08c4.08 0 6.78-.84 8.1-2.52s1.98-4.98 1.98-9.9v-27c0-6.72-1.26-11.64-3.78-14.76-2.4-3.24-6.24-4.86-11.52-4.86-3.12 0-6.3.72-9.54 2.16s-6.18 3.36-8.82 5.76v38.7c0 4.92.66 8.22 1.98 9.9s4.02 2.52 8.1 2.52c.36 0 .54.36.54 1.08s-.18 1.08-.54 1.08c-3 0-5.34-.06-7.02-.18l-10.44-.18-10.44.18c-1.68.12-4.02.18-7.02.18-.36 0-.54-.36-.54-1.08s.18-1.08.54-1.08c4.08 0 6.78-.84 8.1-2.52s1.98-4.98 1.98-9.9V67.04c0-3.84-.48-6.66-1.44-8.46-.84-1.8-2.28-2.7-4.32-2.7-1.8 0-4.8.9-9 2.7h-.18c-.48 0-.84-.3-1.08-.9s-.18-.96.18-1.08l23.58-11.52c.72-.24 1.14-.36 1.26-.36 1.2 0 2.4 1.38 3.6 4.14 1.32 2.64 2.04 6.12 2.16 10.44 8.4-9.96 17.52-14.94 27.36-14.94 6.6 0 11.76 2.04 15.48 6.12 3.72 3.96 5.58 9.36 5.58 16.2v34.74c0 4.92.66 8.22 1.98 9.9s4.02 2.52 8.1 2.52zm4.165-107.1c-.12-1.32 1.62-2.64 5.22-3.96s6.78-1.98 9.54-1.98c1.92 0 2.82.42 2.7 1.26l-10.62 48.06c-.24.24-.78.42-1.62.54-.72.12-1.08 0-1.08-.36l-4.14-43.56zm78.203 97.74c.36 0 .66.24.9.72.36.48.36.84 0 1.08-4.44 4.2-8.64 7.26-12.6 9.18-3.96 1.8-8.16 2.7-12.6 2.7-5.16 0-9.54-1.2-13.14-3.6-3.48-2.52-5.22-6.66-5.22-12.42V61.46c0-3.96-.66-6.6-1.98-7.92-1.2-1.32-3.6-1.98-7.2-1.98-.12 0-.3-.12-.54-.36-.12-.36-.18-.72-.18-1.08s.06-.66.18-.9c.24-.36.42-.54.54-.54 11.28-.48 18.36-5.34 21.24-14.58.24-.48.72-.72 1.44-.72.84 0 1.26.24 1.26.72v14.22c5.64-.12 13.62-.72 23.94-1.8.24 0 .48.48.72 1.44.36.84.54 1.8.54 2.88s-.24 2.16-.72 3.24c-.36 1.08-.78 1.56-1.26 1.44-6.72-1.56-14.46-2.52-23.22-2.88V96.2c0 4.68 1.14 8.16 3.42 10.44 2.4 2.16 5.7 3.24 9.9 3.24 5.04 0 9.78-1.74 14.22-5.22l.36-.18zM58.18 270.82c9.84 1.08 17.7 4.38 23.58 9.9s8.82 12.36 8.82 20.52c0 6.24-1.74 11.94-5.22 17.1-3.36 5.04-8.1 9.06-14.22 12.06-6 2.88-12.72 4.32-20.16 4.32-3.48 0-7.5-.18-12.06-.54-1.56-.12-3.54-.24-5.94-.36a163.67 163.67 0 0 0-8.1-.18l-12.96.18c-2.28.12-5.4.18-9.36.18-.36 0-.54-.36-.54-1.08s.18-1.08.54-1.08c3.84 0 6.72-.3 8.64-.9 1.92-.72 3.24-1.92 3.96-3.6.84-1.68 1.26-4.32 1.26-7.92v-83.34c0-3.48-.42-6.06-1.26-7.74-.72-1.8-2.04-3-3.96-3.6-1.8-.72-4.62-1.08-8.46-1.08-.24 0-.36-.36-.36-1.08s.12-1.08.36-1.08l9.36.18c5.28.24 9.54.36 12.78.36 3.36 0 6.9-.18 10.62-.54l4.68-.36c1.92-.12 4.08-.18 6.48-.18 10.68 0 18.84 2.04 24.48 6.12s8.46 9.84 8.46 17.28c0 5.76-1.86 10.98-5.58 15.66-3.72 4.56-9 8.16-15.84 10.8zM43.6 224.56c-3.84 0-6.48.78-7.92 2.34-1.32 1.56-1.98 4.74-1.98 9.54v34.2l7.56.18c7.08 0 12.42-2.28 16.02-6.84 3.6-4.68 5.4-10.68 5.4-18 0-6.84-1.62-12.12-4.86-15.84s-7.98-5.58-14.22-5.58zm4.5 106.02c16.2 0 24.3-8.34 24.3-25.02 0-9.12-2.4-16.44-7.2-21.96-4.68-5.52-11.58-8.28-20.7-8.28-4.32 0-7.92.12-10.8.36v43.74c0 2.76.36 4.92 1.08 6.48s2.1 2.76 4.14 3.6c2.04.72 5.1 1.08 9.18 1.08zm120.061-7.92c.24 0 .48.24.72.72.36.48.42.84.18 1.08-4.44 4.08-8.88 7.08-13.32 9-4.44 1.8-9.24 2.7-14.4 2.7-7.32 0-13.68-1.62-19.08-4.86-5.28-3.24-9.36-7.5-12.24-12.78-2.76-5.28-4.14-10.98-4.14-17.1 0-7.08 1.74-13.56 5.22-19.44s8.22-10.5 14.22-13.86c6.12-3.48 12.9-5.22 20.34-5.22 7.2 0 12.78 1.74 16.74 5.22s5.94 8.64 5.94 15.48c0 3.48-.72 5.22-2.16 5.22l-43.92.18c-.12 1.08-.18 2.7-.18 4.86 0 10.56 2.4 18.96 7.2 25.2 4.92 6.12 11.88 9.18 20.88 9.18 3.36 0 6.18-.36 8.46-1.08 2.28-.84 5.34-2.28 9.18-4.32l.36-.18zm-28.98-56.16c-4.44 0-8.1 1.74-10.98 5.22-2.76 3.36-4.62 8.04-5.58 14.04l28.8-.54c-.24-12.48-4.32-18.72-12.24-18.72zM24.52 458.58c0 4.44 1.08 8.4 3.24 11.88 2.28 3.36 5.04 6.3 8.28 8.82 3.36 2.52 7.86 5.52 13.5 9 6.12 3.84 10.92 7.14 14.4 9.9 3.6 2.76 6.6 6.18 9 10.26 2.52 3.96 3.78 8.64 3.78 14.04 0 6.12-1.62 11.58-4.86 16.38-3.12 4.8-7.62 8.58-13.5 11.34-5.76 2.64-12.36 3.96-19.8 3.96-5.04 0-10.26-.66-15.66-1.98-5.28-1.32-9.3-2.94-12.06-4.86-1.08-.72-1.68-1.86-1.8-3.42l-1.08-27.36v-.18c0-.48.3-.72.9-.72.6-.12.96.06 1.08.54 3.96 9.96 8.46 18.12 13.5 24.48 5.16 6.36 11.7 9.54 19.62 9.54 5.16 0 9.48-1.38 12.96-4.14 3.48-2.88 5.22-7.62 5.22-14.22 0-5.28-1.2-9.9-3.6-13.86-2.28-3.96-5.16-7.26-8.64-9.9-3.36-2.64-7.98-5.88-13.86-9.72-5.76-3.72-10.26-6.84-13.5-9.36-3.24-2.64-6-5.82-8.28-9.54-2.28-3.84-3.42-8.28-3.42-13.32 0-6.24 1.74-11.52 5.22-15.84s7.98-7.5 13.5-9.54c5.64-2.16 11.52-3.24 17.64-3.24 4.08 0 8.16.42 12.24 1.26 4.08.72 7.5 1.68 10.26 2.88 1.8.72 2.7 1.86 2.7 3.42l.54 24.48c0 .36-.36.6-1.08.72-.6.12-.96 0-1.08-.36-2.4-7.32-5.64-13.92-9.72-19.8-3.96-6-9.96-9-18-9-5.4 0-9.72 1.56-12.96 4.68-3.12 3.12-4.68 7.38-4.68 12.78zm149.19 91.26c.48 0 .72.36.72 1.08s-.24 1.08-.72 1.08c-3 0-5.4-.06-7.2-.18l-10.26-.18-10.26.18c-1.8.12-4.2.18-7.2.18-.36 0-.54-.36-.54-1.08s.18-1.08.54-1.08c3.96 0 6.66-.84 8.1-2.52 1.44-1.8 2.16-5.1 2.16-9.9V510.6c0-13.2-5.16-19.8-15.48-19.8-3.24 0-6.54.78-9.9 2.34-3.24 1.44-6.12 3.42-8.64 5.94v38.34c0 4.92.66 8.22 1.98 9.9 1.44 1.68 4.2 2.52 8.28 2.52.48 0 .72.36.72 1.08s-.24 1.08-.72 1.08c-3 0-5.4-.06-7.2-.18l-10.26-.18-10.26.18c-1.8.12-4.2.18-7.2.18-.36 0-.54-.36-.54-1.08s.18-1.08.54-1.08c3.96 0 6.66-.84 8.1-2.52 1.44-1.8 2.159-5.1 2.159-9.9v-91.98c0-4.2-.42-7.2-1.259-9-.84-1.92-2.22-2.88-4.14-2.88-1.8 0-4.26.72-7.38 2.16h-.18c-.36 0-.72-.3-1.08-.9-.24-.72-.18-1.14.18-1.26l25.02-11.88.9-.18c.48 0 .96.24 1.44.72.6.48.9.9.9 1.26v72c8.64-9.96 17.82-14.94 27.54-14.94 6.6 0 11.7 1.98 15.3 5.94 3.72 3.96 5.58 9.36 5.58 16.2v34.74c0 4.92.66 8.22 1.98 9.9 1.44 1.68 4.2 2.52 8.28 2.52zm82.415-67.32c.24 0 .36.36.36 1.08s-.12 1.08-.36 1.08c-3.6 0-6.72 1.44-9.36 4.32-2.52 2.88-4.86 7.26-7.02 13.14l-20.7 54.9c-4.32 11.52-8.46 20.58-12.42 27.18s-7.98 11.28-12.06 14.04c-4.08 2.88-8.58 4.32-13.5 4.32-3.36 0-5.94-.72-7.74-2.16-1.92-1.32-2.88-3.36-2.88-6.12 0-2.4.78-4.26 2.34-5.58 1.44-1.2 3.24-1.8 5.4-1.8 1.44 0 2.64.18 3.6.54 1.08.48 2.16 1.08 3.24 1.8 1.2.72 2.22 1.26 3.06 1.62.96.36 2.1.54 3.42.54 2.76 0 5.28-1.14 7.56-3.42 2.4-2.16 4.86-5.82 7.38-10.98 2.64-5.16 5.76-12.48 9.36-21.96l-28.44-57.6c-2.64-5.16-4.74-8.58-6.3-10.26-1.44-1.68-3.24-2.52-5.4-2.52-.36 0-.54-.36-.54-1.08s.18-1.08.54-1.08c3.12 0 5.52.06 7.2.18l7.02.18 12.24-.18c1.8-.12 4.26-.18 7.38-.18.36 0 .54.36.54 1.08s-.18 1.08-.54 1.08c-3.24 0-5.64.3-7.2.9-1.44.48-2.16 1.44-2.16 2.88 0 1.08.3 2.16.9 3.24l21.96 45.36 12.06-34.92c1.08-3.12 1.62-5.76 1.62-7.92 0-6.36-4.02-9.54-12.06-9.54-.24 0-.36-.36-.36-1.08s.12-1.08.36-1.08c3.24 0 5.7.06 7.38.18l10.8.18 7.02-.18c1.32-.12 3.42-.18 6.3-.18z" fill="#4971ff"/></svg>
